app/assets/icons/eye-slash.svg

<svg xmlns="http://www.w3.org/2000/svg" viewBox="0 0 640 512"><!--! Font Awesome Pro 6.0.0 by @fontawesome - https://fontawesome.com License - https://fontawesome.com/license (Commercial License) Copyright 2022 Fonticons, Inc. --><path d="M636.1 497.7C640.4 500.5 641 505.5 638.3 508.1C635.5 512.4 630.5 513 627 510.3L3.022 14.26C-.4365 11.51-1.012 6.481 1.738 3.022C4.487-.4365 9.52-1.012 12.98 1.738L636.1 497.7zM605.5 268.3C595.9 291.3 579.5 321.1 556.5 351L543.1 341.1C566 312.4 581.7 283.1 590.8 262.2C592.4 258.2 592.4 253.8 590.8 249.8C576.7 215.1 546.6 166 501.7 124.3C456.6 82.41 395.6 47.1 319.1 47.1C277.9 47.1 240.3 58.69 207.4 75.4L193.7 64.55C229.9 44.92 272.2 31.1 320 31.1C400.8 31.1 465.5 68.84 512.6 112.6C559.4 156 590.7 207.1 605.5 243.7C608.8 251.6 608.8 260.4 605.5 268.3H605.5zM83.46 160.1L96.02 170.9C74 199.6 58.31 228 49.23 249.8C47.59 253.8 47.59 258.2 49.23 262.2C63.34 296 93.38 345.1 138.3 387.7C183.4 429.6 244.4 464 320 464C362.1 464 399.7 453.3 432.6 436.6L446.3 447.5C410.1 467.1 367.8 480 319.1 480C239.2 480 174.5 443.2 127.4 399.4C80.62 355.1 49.34 304 34.46 268.3C31.18 260.4 31.18 251.6 34.46 243.7C44.06 220.7 60.46 190.9 83.46 160.1H83.46zM208 259.4L225.5 273.1C233.6 317.1 272.8 352 320 352C321.8 352 323.5 351.1 325.2 351.9L342.7 365.7C335.4 367.2 327.8 368 320 368C259.3 368 209.8 319.7 208 259.4H208zM319.1 143.1C380.7 143.1 430.2 192.3 431.9 252.6L414.5 238.8C406.4 194 367.2 159.1 319.1 159.1C318.2 159.1 316.5 160 314.8 160.1L297.3 146.3C304.6 144.8 312.2 143.1 319.1 143.1L319.1 143.1z"/></svg>

<?xml version="1.0" encoding="utf-8"?>
<!-- Generator: Adobe Illustrator 25.0.0, SVG Export Plug-In . SVG Version: 6.00 Build 0)  -->
<svg version="1.1" id="Layer_1" xmlns="http://www.w3.org/2000/svg" xmlns:xlink="http://www.w3.org/1999/xlink" x="0px" y="0px"
	 viewBox="0 0 640 512" style="enable-background:new 0 0 640 512;" xml:space="preserve">
<style type="text/css">
	.st0{fill:#FFFFFF;}
	.st1{fill:#A0522D;}
	.st2{fill:#333333;}
</style>
<path class="st0" d="M35.1,256.6C92.5,385.5,198.6,472,320,472c121.4,0,227.5-86.6,284.9-215.5C547.5,127.6,441.4,41.1,320,41.1
	C198.6,41.1,92.5,127.7,35.1,256.6z"/>
<circle class="st1" cx="320" cy="254.9" r="125.3"/>
<path class="st2" d="M636.1,497.7c4.3,2.8,4.9,7.8,2.2,10.4c-2.8,4.3-7.8,4.9-11.3,2.2L3,14.3C-0.4,11.5-1,6.5,1.7,3
	C4.5-0.4,9.5-1,13,1.7L636.1,497.7z M605.5,268.3c-9.6,23-26,52.8-49,82.7l-13.4-9.9c22.9-28.7,38.6-58,47.7-78.9
	c1.6-4,1.6-8.4,0-12.4c-14.1-34.7-44.2-83.8-89.1-125.5c-45.1-41.9-106.1-77.2-182.6-77.2c-41.2,0-78.8,11.6-111.7,28.3l-13.7-10.8
	c36.2-19.6,78.5-33.5,126.3-33.5c80.8,0,145.5,37.7,192.6,81.5c46.8,43.4,78.1,94.5,92.9,131.1C608.8,251.6,608.8,260.4,605.5,268.3
	L605.5,268.3z M83.5,160.1L96,170.9c-22,28.7-37.7,57.1-46.8,78.9c-1.6,4-1.6,8.4,0,12.4c14.1,33.8,44.1,82.9,89.1,125.5
	C183.4,429.6,244.4,464,320,464c42.1,0,79.7-10.7,112.6-27.4l13.7,10.9c-36.2,19.6-78.5,32.5-127.2,32.5
	c-79.9,0-144.6-36.8-191.7-80.6C80.6,355.1,49.3,304,34.5,268.3c-3.3-7.9-3.3-16.7,0-24.6C44.1,220.7,60.5,190.9,83.5,160.1
	L83.5,160.1z M208,259.4l17.5,13.7c8.1,44,47.3,78.9,94.5,78.9c1.8,0,3.5-0.9,5.2-0.1l17.5,13.8c-7.3,1.5-14.9,2.3-22.7,2.3
	C259.3,368,209.8,319.7,208,259.4L208,259.4z M319.1,143.1c61.6,0,111.1,49.2,112.8,109.5l-17.4-13.8c-8.1-44.8-47.3-79.7-95.4-79.7
	c-0.9,0-2.6,0.9-4.3,1l-17.5-13.8C304.6,144.8,312.2,143.1,319.1,143.1L319.1,143.1z"/>
</svg>
